X: 27799
T: Morrison's
R: jig
M: 6/8
K: Edorian
|:E>FE BEB|EBE AFD|E>FE BEB|dcB AFD|
E>FE BEB|EBE AFD|GFG E2 B/c/|1 dcB AFD:|2 dcB ABc||
|:B2Te f2 Te|B2 Te dBA|B2Te f2 Te|eag fed|
B2Te f2 Te|B2 Te dBA|cBc A3|1 B3 ABc:|2 B3 AFD||

